assets/icons/standard/work_contract.svg

<svg xmlns="http://www.w3.org/2000/svg" width="100" height="100" viewBox="0 0 100 100"><path d="M56.3,34h9.1a1.16,1.16,0,0,0,1.2-1.2,1.09,1.09,0,0,0-.4-.9L55,20.6a1.27,1.27,0,0,0-.9-.4,1.16,1.16,0,0,0-1.2,1.2v9.1A3.6,3.6,0,0,0,56.3,34Z" fill="#fff"/><path d="M63.9,55.2A12.3,12.3,0,1,0,76.2,67.5,12.29,12.29,0,0,0,63.9,55.2ZM66,68.6c-.4,0-.7-.1-1-.1l-4.7,4.6a1.22,1.22,0,0,1-1,.5,1.28,1.28,0,0,1-1-.4,1.66,1.66,0,0,1,0-2.1L63,66.4a2.79,2.79,0,0,1-.1-1,3.85,3.85,0,0,1,3.7-4.1c.4,0,.7.1,1,.1.1,0,.1.1.1.4l-2.1,2.1a.45.45,0,0,0,0,.5l1.5,1.5a.63.63,0,0,0,.6,0l2.1-2.1c.1-.1.4-.1.4.1a3.75,3.75,0,0,1,.1,1A4,4,0,0,1,66,68.6Z" fill="#fff"/><path d="M51.6,56.6c4.3-5,11.3-5.3,12.3-5.3s2.7-.1,2.6-1.5,0-8.9,0-8.9a1.63,1.63,0,0,0-1.7-1.7h-12a5.12,5.12,0,0,1-5.1-5.1v-12A1.63,1.63,0,0,0,46,20.4H29a5.26,5.26,0,0,0-5.1,5.1V66.6A5.12,5.12,0,0,0,29,71.7H46.4s1.7-1,1.6-2.4S47.4,61.5,51.6,56.6ZM36,24.9a3.7,3.7,0,1,1-3.7,3.7A3.69,3.69,0,0,1,36,24.9ZM30.3,37.8A5.62,5.62,0,0,1,35.9,33h.2a5.62,5.62,0,0,1,5.6,4.8.9.9,0,0,1-1,.9H31.1C30.3,38.7,30.3,38.2,30.3,37.8Zm15,21.9a1.63,1.63,0,0,1-1.7,1.7H32.4a1.63,1.63,0,0,1-1.7-1.7V58a1.63,1.63,0,0,1,1.7-1.7H43.6A1.63,1.63,0,0,1,45.3,58ZM32.4,51.1a1.63,1.63,0,0,1-1.7-1.7V47.7A1.63,1.63,0,0,1,32.4,46H53a1.63,1.63,0,0,1,1.7,1.7v1.7A1.63,1.63,0,0,1,53,51.1Z" fill="#fff"/></svg>

<?xml version="1.0"?><svg xmlns="http://www.w3.org/2000/svg" width="100" height="100" viewBox="0 0 100 100"><title></title><path d="m56.3 34h9.1a1.2 1.2 0 0 0 1.2-1.2 1.1 1.1 0 0 0-0.4-0.9l-11.2-11.3a1.3 1.3 0 0 0-0.9-0.4 1.2 1.2 0 0 0-1.2 1.2v9.1a3.6 3.6 0 0 0 3.4 3.5z m7.6 21.2a12.3 12.3 0 1 0 12.3 12.3 12.3 12.3 0 0 0-12.3-12.3z m2.1 13.4c-0.4 0-0.7-0.1-1-0.1l-4.7 4.6a1.2 1.2 0 0 1-1 0.5 1.3 1.3 0 0 1-1-0.4 1.7 1.7 0 0 1 0-2.1l4.7-4.7a2.8 2.8 0 0 1-0.1-1 3.9 3.9 0 0 1 3.7-4.1c0.4 0 0.7 0.1 1 0.1 0.1 0 0.1 0.1 0.1 0.4l-2.1 2.1a0.5 0.5 0 0 0 0 0.5l1.5 1.5a0.6 0.6 0 0 0 0.6 0l2.1-2.1c0.1-0.1 0.4-0.1 0.4 0.1a3.8 3.8 0 0 1 0.1 1 4 4 0 0 1-4.3 3.7z m-14.4-12c4.3-5 11.3-5.3 12.3-5.3s2.7-0.1 2.6-1.5 0-8.9 0-8.9a1.6 1.6 0 0 0-1.7-1.7h-12a5.1 5.1 0 0 1-5.1-5.1v-12a1.6 1.6 0 0 0-1.7-1.7h-17a5.3 5.3 0 0 0-5.1 5.1v41.1a5.1 5.1 0 0 0 5.1 5.1h17.4s1.7-1 1.6-2.4-0.6-7.8 3.6-12.7z m-15.6-31.7a3.7 3.7 0 1 1-3.7 3.7 3.7 3.7 0 0 1 3.7-3.7z m-5.7 12.9a5.6 5.6 0 0 1 5.6-4.8h0.2a5.6 5.6 0 0 1 5.6 4.8 0.9 0.9 0 0 1-1 0.9h-9.6c-0.8 0-0.8-0.5-0.8-0.9z m15 21.9a1.6 1.6 0 0 1-1.7 1.7h-11.2a1.6 1.6 0 0 1-1.7-1.7v-1.7a1.6 1.6 0 0 1 1.7-1.7h11.2a1.6 1.6 0 0 1 1.7 1.7z m-12.9-8.6a1.6 1.6 0 0 1-1.7-1.7v-1.7a1.6 1.6 0 0 1 1.7-1.7h20.6a1.6 1.6 0 0 1 1.7 1.7v1.7a1.6 1.6 0 0 1-1.7 1.7z" fill="#fff"></path></svg>
